svg/chess_bishop.svg

<svg xmlns="http://www.w3.org/2000/svg" viewBox="0 0 24 24"><path d="M19 22H5v-2h14zM17.16 8.26A8.94 8.94 0 0 1 19 13c0 2.76-3.13 5-7 5s-7-2.24-7-5c0-2.38 2.33-6.61 5.46-7.73-.3-.36-.46-.81-.46-1.27a2 2 0 0 1 2-2 2 2 0 0 1 2 2c0 .46-.16.91-.46 1.27.86.33 1.64.83 2.3 1.47l-4.55 4.55 1.42 1.42z"/></svg>

<?xml version="1.0" encoding="UTF-8"?><!DOCTYPE svg PUBLIC "-//W3C//DTD SVG 1.1//EN" "http://www.w3.org/Graphics/SVG/1.1/DTD/svg11.dtd"><svg xmlns="http://www.w3.org/2000/svg" xmlns:xlink="http://www.w3.org/1999/xlink" version="1.1" id="mdi-chess-bishop" width="24" height="24" viewBox="0 0 24 24"><path d="M19,22H5V20H19V22M17.16,8.26C18.22,9.63 18.86,11.28 19,13C19,15.76 15.87,18 12,18C8.13,18 5,15.76 5,13C5,10.62 7.33,6.39 10.46,5.27C10.16,4.91 10,4.46 10,4A2,2 0 0,1 12,2A2,2 0 0,1 14,4C14,4.46 13.84,4.91 13.54,5.27C14.4,5.6 15.18,6.1 15.84,6.74L11.29,11.29L12.71,12.71L17.16,8.26Z" /></svg>
